Numix-GalliumOS/16/mimetypes/application-images.svg

<?xml version="1.0" encoding="UTF-8" standalone="no"?>
<svg
   xmlns:dc="http://purl.org/dc/elements/1.1/"
   xmlns:cc="http://creativecommons.org/ns#"
   xmlns:rdf="http://www.w3.org/1999/02/22-rdf-syntax-ns#"
   xmlns:svg="http://www.w3.org/2000/svg"
   xmlns="http://www.w3.org/2000/svg"
   xmlns:sodipodi="http://sodipodi.sourceforge.net/DTD/sodipodi-0.dtd"
   xmlns:inkscape="http://www.inkscape.org/namespaces/inkscape"
   width="16"
   height="16"
   viewBox="0 0 16 16"
   id="svg2"
   version="1.1"
   inkscape:version="0.48.5 r10040"
   sodipodi:docname="application-images.svg">
  <metadata
     id="metadata16">
    <rdf:RDF>
      <cc:Work
         rdf:about="">
        <dc:format>image/svg+xml</dc:format>
        <dc:type
           rdf:resource="http://purl.org/dc/dcmitype/StillImage" />
      </cc:Work>
    </rdf:RDF>
  </metadata>
  <defs
     id="defs14" />
  <sodipodi:namedview
     pagecolor="#ffffff"
     bordercolor="#666666"
     borderopacity="1"
     objecttolerance="10"
     gridtolerance="10"
     guidetolerance="10"
     inkscape:pageopacity="0"
     inkscape:pageshadow="2"
     inkscape:window-width="1280"
     inkscape:window-height="970"
     id="namedview12"
     showgrid="true"
     inkscape:zoom="11.313709"
     inkscape:cx="22.157108"
     inkscape:cy="3.2879337"
     inkscape:window-x="0"
     inkscape:window-y="0"
     inkscape:window-maximized="1"
     inkscape:current-layer="svg2">
    <inkscape:grid
       type="xygrid"
       id="grid3018" />
  </sodipodi:namedview>
  <path
     style="fill:#38a34e;fill-opacity:1"
     d="M 2.667969,-4.46e-4 C 2.324219,-4.46e-4 2,0.3378121 2,0.6964468 L 2,15.303108 C 2,15.641365 2.34375,16 2.667969,16 l 10.664062,0 C 13.65625,16 14,15.641365 14,15.303108 l 0,-11.303554 -4,-4 z"
     id="path4-7"
     inkscape:connector-curvature="0"
     sodipodi:nodetypes="ssssssccs" />
  <path
     style="fill:#000000;fill-opacity:0.19599998"
     d="m 10.583223,3.331585 0.0154,0.019531 0.04005,-0.019531 z M 10.613,3.999554 14,7.663616 14,3.999554 z"
     id="path6-6"
     inkscape:connector-curvature="0"
     sodipodi:nodetypes="cccccccc" />
  <path
     style="fill:#ffffff;fill-opacity:0.39200003"
     d="m 10,-4.46e-4 3.996396,4 -3.383784,0 C 10.313513,3.999554 10,3.6824369 10,3.3833376 z"
     id="path8-0"
     inkscape:connector-curvature="0"
     sodipodi:nodetypes="ccssc" />
  <path
     style="fill:#ffffff"
     d="M 5.3912825,6.0000004 C 5.1802957,6.0219779 4.9956817,6.2417564 5.000077,6.4791159 l 0,5.0548911 c 0.00439,0.246152 0.2021962,0.470325 0.4263699,0.465929 l 5.1647801,0 c 0.219778,-0.0044 0.408786,-0.224174 0.413182,-0.465929 l 0,-5.0548911 c 0,-0.2461512 -0.193404,-0.4747202 -0.413182,-0.4791155 z m 0.6087175,1 4,0 L 10,10 8.9912468,8.4263483 8.094553,9.2571085 6.9209388,7.780201 6,9.0000004 z"
     id="path10"
     inkscape:connector-curvature="0"
     sodipodi:nodetypes="ccccccscccccccccc" />
</svg>

<svg xmlns="http://www.w3.org/2000/svg" viewBox="0 0 16 16">
 <path d="m 2.668 0 c -0.344 0 -0.668 0.338 -0.668 0.697 l 0 14.607 c 0 0.338 0.344 0.697 0.668 0.697 l 10.664 0 c 0.324 0 0.668 -0.359 0.668 -0.697 l 0 -11.304 -4 -4 z" style="fill:#38a34e;fill-opacity:1"/>
 <path d="m 10.583 3.332 0.015 0.02 0.04 -0.02 z m 0.03 0.668 3.387 3.664 0 -3.664 z" style="fill:#000;fill-opacity:0.196"/>
 <path d="m 10 0 3.996 4 -3.384 0 c -0.299 0 -0.613 -0.317 -0.613 -0.616 z" style="fill:#fff;fill-opacity:0.392"/>
 <path d="m 5.391 6 c -0.211 0.022 -0.396 0.242 -0.391 0.479 l 0 5.05 c 0.004 0.246 0.202 0.47 0.426 0.466 l 5.165 0 c 0.22 -0.004 0.409 -0.224 0.413 -0.466 l 0 -5.05 c 0 -0.246 -0.193 -0.475 -0.413 -0.479 z m 0.609 1 4 0 l 0 3 -1.01 -1.574 -0.897 0.831 -1.174 -1.477 -0.921 1.22 z" style="fill:#fff"/>
</svg>
